X: 34225
T: Reel St. Jean
R: reel
M: 4/4
K: Bminor
dBBB FBdB|dfBd f2ed|cAAA EAcA|ceAc e2fe|
dBBB FBdB|dfBd f2cB|~A3c eefe|1 dBcA B2fe:|2 dBcA B2(3ABc||
d2dc defg|a2ab afed|d'2 b2 afde|fdef edBA|
d2dc defg|a2ab afed|d'2 b2 afde|1 fdec d2(3ABc:|2 fdec d2fe||

